X: 36021
T: Scaffie's Cairt, The
R: jig
M: 6/8
K: Amixolydian
|:c/d/|e2 c A^GA|aec A2 c|dfd cec|BGB dcd|
e2 c A^GA|aec A2 c|BGB edB|BA^G A2:|
|:B|A2 a aec|aec ABA|G2 g gdB|gdG BA^G|
A2 a aec|aec ABc|BGB edB|BA^G A2:|

